X: 42304
T: Wedding March
R: polka
M: 2/4
K: Dmajor
FG A>B|AF Ad|FE D2|D/^C/D/E/ D2|GA B2|B/A/B/_c/ Bd|dB A>G|FG A2|FD DG|
GF GB|AF D2|F>D FA|GF E2|E/D/E/F/ GF|E^C DD|FA d2|e/d/c/B/ BG|
GB d2|e/d/c/B/ AF|DF A2|B/A/G/F/ E2|E/D/E/F/ GF|E^C D^C|B,^C D2|D/^C/D/E/ D2|
FG Ad|f2 f/e/f/g/|f<e d2|d>d d2|ef g2|gf/e/ fe|df e>f|ec A2|
FG Ad|f2 f/e/f/g/|f<e d2|d>d d2|ef g>f|ed c>d|ec d2|d>d d2|
DE F>F|GF E>E|FE DF|Ad f>f|ef gf/e/|fe df|ea ab|a2 a/g/f/e/|
Ad dA|c2 e/d/c/B/|BG Bd|A2 FD|GB dB|Ac ec|d2 d>d|d4|

